32x32/apps/QtProject-designer.svg

<svg xmlns="http://www.w3.org/2000/svg" width="32" height="32" version="1.1">
 <path style="opacity:0.2" d="M 6.65625,5.9998733 C 6.3922604,6.0001647 6.141173,6.1084526 5.9589844,6.3006545 L 2.2675781,10.191279 C 2.1596855,10.305202 2.093623,10.446986 2.0507812,10.595576 l -0.00781,-0.0039 C 2.0175438,10.679423 1.99998,10.770187 2,10.863154 v 14.867188 c 0,0.972522 0.6269021,1.727792 1.1796875,2.005859 0.5527855,0.278067 1.0761719,0.263672 1.0761719,0.263672 H 26.341797 c 0.26399,-2.92e-4 0.51703,-0.110532 0.699219,-0.302734 l 3.693359,-3.888672 c 0.01067,-0.01126 0.01344,-0.02734 0.02344,-0.03906 0.07805,-0.09086 0.139769,-0.193219 0.179688,-0.304687 0.0013,-0.0036 0.0046,-0.0062 0.0059,-0.0098 l -0.0039,-0.002 C 30.974449,23.3514 31.000024,23.246048 31,23.136592 V 8.2694045 C 31,7.296882 30.373098,6.5435649 29.820312,6.2654983 29.267527,5.9874311 28.744141,5.9998733 28.744141,5.9998733 Z"/>
 <path style="fill:#4cdb5d" d="M 6.6571185,5.0001037 C 6.3931289,5.0003951 6.1407393,5.1092824 5.9585507,5.3014843 L 2.2668402,9.1915726 C 2.0954977,9.3724916 1.999946,9.612819 2,9.8627128 L 4.8417146,17.265589 C 5.1904297,18.174017 3.3521426,24.530611 3.904928,24.808678 4.4577135,25.086744 6.8333333,23.5625 6.8333333,23.5625 L 24.785714,24.25 c 0.26399,-2.92e-4 1.198764,-0.495298 1.380953,-0.6875 L 30.73316,22.808312 C 30.904502,22.627393 31.000054,22.387064 31,22.13717 V 7.2693219 C 31,6.2967993 30.373402,5.542828 29.820616,5.2647614 29.267831,4.9866942 28.744445,5.0001037 28.744445,5.0001037 Z"/>
 <path style="fill:#31ae3e" d="m 2.0424808,9.5913133 c -0.025425,0.087753 -0.0425,0.1787445 -0.04248,0.2717123 V 24.730135 c 0,0.972522 0.6263694,1.727552 1.1791548,2.005619 0.5527855,0.278067 1.0761719,0.26413 1.0761719,0.26413 H 26.342596 c 0.26399,-2.92e-4 0.516808,-0.109841 0.698997,-0.302043 l 3.691938,-3.889916 c 0.09617,-0.101541 0.164914,-0.222436 0.209828,-0.352594 z"/>
 <path style="opacity:0.1" d="M 2.0429688 9.5917969 C 2.0175438 9.6795499 1.99998 9.7703134 2 9.8632812 L 2 10.863281 C 1.99998 10.770313 2.0175438 10.679547 2.0429688 10.591797 L 30.365234 23.197266 L 30.734375 22.808594 C 30.830545 22.707053 30.898445 22.585236 30.943359 22.455078 L 2.0429688 9.5917969 z"/>
 <path style="opacity:0.2" d="m 12,11 v 12 h 1.285714 0.642857 2.25 H 16.5 16.821429 C 19.136357,23 21,21.067333 21,18.666667 V 15.333333 C 21,12.932666 19.136357,11 16.821429,11 H 16.5 13.928571 Z m 2,2 H 16.178571 16.5 16.821429 C 18.101288,13 19,14.006072 19,15.333333 v 3.333334 C 19,19.993928 18.101288,21 16.821429,21 H 16.5 16.178571 14 Z"/>
 <path style="fill:#f4f4f7" d="m 12,10 v 12 h 1.285714 0.642857 2.25 H 16.5 16.821429 C 19.136357,22 21,20.067333 21,17.666667 V 14.333333 C 21,11.932666 19.136357,10 16.821429,10 H 16.5 13.928571 Z m 2,2 H 16.178571 16.5 16.821429 C 18.101288,12 19,13.006072 19,14.333333 v 3.333334 C 19,18.993928 18.101288,20 16.821429,20 H 16.5 16.178571 14 Z"/>
 <path style="opacity:0.2;fill:#f4f4f7" d="M 6.65625 5 C 6.3922604 5.0002914 6.141173 5.1085793 5.9589844 5.3007812 L 2.2675781 9.1914062 C 2.1596855 9.3053292 2.093623 9.4471128 2.0507812 9.5957031 L 2.0429688 9.5917969 C 2.0175437 9.6795499 1.99998 9.7703135 2 9.8632812 L 2 10.863281 C 1.99998 10.770314 2.0175414 10.679544 2.0429688 10.591797 L 2.0507812 10.595703 C 2.093623 10.447113 2.1596855 10.305329 2.2675781 10.191406 L 5.9589844 6.3007812 C 6.141173 6.1085793 6.3922604 6.0002914 6.65625 6 L 28.744141 6 C 28.744141 6 29.267527 5.9875578 29.820312 6.265625 C 30.373098 6.5436916 31 7.2970087 31 8.2695312 L 31 7.2695312 C 31 6.2970087 30.373098 5.5436916 29.820312 5.265625 C 29.267527 4.9875578 28.744141 5 28.744141 5 L 6.65625 5 z"/>
</svg>

<svg xmlns="http://www.w3.org/2000/svg" width="32" height="32"><path style="opacity:.2" d="M6.656 6a.96.96 0 0 0-.697.3l-3.691 3.891a.966.966 0 0 0-.217.405l-.008-.004a.975.975 0 0 0-.043.271V25.73c0 .973.627 1.728 1.18 2.006.552.278 1.076.264 1.076.264h22.086c.264 0 .517-.11.699-.303l3.693-3.889c.011-.01.014-.027.024-.039a.971.971 0 0 0 .18-.304c0-.004.004-.006.005-.01l-.003-.002a.971.971 0 0 0 .06-.316V8.269c0-.972-.627-1.725-1.18-2.004C29.268 5.987 28.744 6 28.744 6z"/><path style="fill:#4cdb5d" d="M6.657 5a.964.964 0 0 0-.698.301l-3.692 3.89A.976.976 0 0 0 2 9.864l2.842 7.403c.348.908-1.49 7.265-.937 7.543.553.278 2.928-1.247 2.928-1.247l17.953.688c.264 0 1.198-.495 1.38-.688l4.567-.754a.976.976 0 0 0 .267-.67V7.268c0-.972-.627-1.726-1.18-2.004C29.269 4.987 28.745 5 28.745 5z"/><path style="fill:#31ae3e" d="M2.042 9.591A.977.977 0 0 0 2 9.863V24.73c0 .973.626 1.728 1.18 2.006.552.278 1.075.264 1.075.264h22.088c.264 0 .516-.11.699-.302l3.692-3.89a.967.967 0 0 0 .21-.353z"/><path style="opacity:.1" d="M2.043 9.592A.975.975 0 0 0 2 9.863v1c0-.093.018-.183.043-.271l28.322 12.605.37-.388a.969.969 0 0 0 .208-.354L2.043 9.592z"/><path style="opacity:.2" d="M12 11v12h4.821C19.136 23 21 21.067 21 18.667v-3.334c0-2.4-1.864-4.333-4.179-4.333H13.93zm2 2h2.821C18.101 13 19 14.006 19 15.333v3.334C19 19.994 18.101 21 16.821 21H14z"/><path style="fill:#f4f4f7" d="M12 10v12h4.821C19.136 22 21 20.067 21 17.667v-3.334c0-2.4-1.864-4.333-4.179-4.333H13.93zm2 2h2.821C18.101 12 19 13.006 19 14.333v3.334C19 18.994 18.101 20 16.821 20H14z"/><path style="opacity:.2;fill:#f4f4f7" d="M6.656 5a.96.96 0 0 0-.697.3L2.268 9.192a.966.966 0 0 0-.217.405l-.008-.004A.975.975 0 0 0 2 9.863v1c0-.093.018-.183.043-.271l.008.004a.966.966 0 0 1 .217-.405l3.691-3.89A.96.96 0 0 1 6.656 6h22.088s.524-.012 1.076.266C30.373 6.544 31 7.297 31 8.27v-1c0-.973-.627-1.726-1.18-2.004C29.268 4.988 28.744 5 28.744 5H6.656z"/></svg>
